!!!!SEGMENT: pl-cz--iii-97_danik-jan-ignac--mater-pietatis.krn
!!!cenid: 17xx:868
!!!COM: Danik, Ján Ignác
!!!COM-rismID: pe30000792
!!!CDT: ~1700-~1799
!!!CNT: Czech
!!!OTL: Mater pietatis
!!!PDT: 1788
!!!AGN: Sacred
!!!SMS-siglum: PL-CZ
!!!SMS-shelfmark: III-97
!!!SMS-shelfwork: W
!!!SMS-variant:
!!!SMS-altvar:
!!!NIFC-rismSourceID: 300000099
!!!NIFC-rismChildID: 300000099
!!!NIFC-islandoraID: pl-cz:41756
!!!URL-pdf-islandora: https://repozytorium.nifc.pl/islandora/object/pl-cz%3A41756/datastream/PDF/view
!!!URL-scan: https://polish.musicsources.pl/pl/lokalizacje/galeria/rekopisy/7040/1 @EN{Scan on Polish Music Sources Website} @PL{Skany w portalu Dziedzictwo Muzyki Polskiej w otwartym dostępie}
!!!IIIF:
!!!ONB-nifc:
!!!AIN: 1 alto 1 viola 2 violn
!!!key:
**kern	**kern	**dynam	**kern	**dynam	**kern	**text
*part4	*part3	*part3	*part2	*part2	*part1	*part1
*staff4	*staff3	*	*staff2	*	*staff1	*staff1
*Iviola	*Ivioln	*	*Ivioln	*	*Ialto	*
*I"Alto Viola	*I"Violino Secundo.	*	*I"Violino Primo.	*	*I"Alto.	*
*I'vla	*I'vl II	*	*I'vl I	*	*I'A	*
*ICstr	*ICstr	*	*ICstr	*	*ICvox	*
*clefC3	*clefG2	*	*clefG2	*	*clefC3	*
*k[c#f#g#]	*k[f#c#g#]	*	*k[c#f#g#]	*	*k[c#g#f#]	*
*A:	*A:	*	*A:	*	*A:	*
*M3/4	*M3/4	*	*M3/4	*	*M3/4	*
!	!	!	!	!	!LO:TX:t=P:problem=partia Organo nie ujęta w transkrypcji [prawdopodobnie należy do innego utworu]	!
!LO:TX:t=P:problem=brak oznaczenia tempa	!	!	!LO:TX:t=P:problem=brak oznaczenia tempa	!	!LO:TX:t=P:problem=brak oznaczenia tempa	!
!LO:TX:t=P:problem=kolejność znaków c# f# g#	!LO:TX:t=P:problem=brak oznaczenia tempa	!	!LO:TX:t=P:problem=kolejność znaków cc# ff# gg#	!	!LO:TX:t=P:problem=kolejność znaków c# g# f#	!
!LO:TX:b:rj:t=Aria	!LO:TX:b:rj:t=Aria	!	!LO:TX:b:rj:t=Aria	!	!LO:TX:b:rj:t=Aria	!
4r	4ee\	.	4ee\	.	4r	.
=1	=1	=1	=1	=1	=1	=1
!	!LO:TX:t=P:problem=mixed beam	!	!LO:TX:t=P:problem=mixed beam	!	!	!
4cc#\	8a/L	.	8a/L	.	0.r	.
.	8ff#\J	.	8ff#\J	.	.	.
4b\	4.ee\	.	4.ee\	.	.	.
4b\	.	.	.	.	.	.
.	8dd\	.	8dd\	.	.	.
=2	=2	=2	=2	=2	=2	=2
*2\right	*	*	*	*	*	*
!	!LO:SIC:s:v=4qdd	!	!	!	!	!
.	4qqee/	.	4qqdd/	.	.	.
*	*2\right	*	*2\right	*	*	*
2a\	2cc#\	.	2cc#\	.	.	.
8e\L	4e/	.	4e/	.	.	.
8d\J	.	.	.	.	.	.
=3	=3	=3	=3	=3	=3	=3
4c#\	8a/L	.	8a/L	.	.	.
.	8b/J	.	8b/J	.	.	.
!	!	!	!LO:TX:t=P:problem=niejednoznaczny zapis ozdobnika [przyjęto mordent]	!	!	!
4e\	4.b/	.	4.bM/	.	.	.
4e\	.	.	.	.	.	.
.	16a/LL	.	16a/LL	.	.	.
.	16b/JJ	.	16b/JJ	.	.	.
=4	=4	=4	=4	=4	=4	=4
2e\	4.cc#\	.	4.cc#\	.	.	.
.	16dd\LL	.	16dd\LL	.	.	.
.	16ee\JJ	.	16ee\JJ	.	.	.
8c#/L	4f#/	.	4f#/	.	.	.
8B/J	.	.	.	.	.	.
=5	=5	=5	=5	=5	=5	=5
!	!	!LO:DY:a	!	!LO:DY:a:t=pia	!	!
4c#\	8a/L	p	8a:\L	p	0.r	.
.	8b/J	.	8b\J	.	.	.
4f#\	4.b/	.	4.b\	.	.	.
4g#\	.	.	.	.	.	.
.	16a/LL	.	16a\LL	.	.	.
.	16b/JJ	.	16b\JJ	.	.	.
=6	=6	=6	=6	=6	=6	=6
!	!	!LO:DY:a:t=for	!	!LO:DY:a:t=for	!	!
8a\	8.cc#\L	f	8cc#\	f	.	.
4a\	.	.	4aa\	.	.	.
.	32b\LL	.	.	.	.	.
.	32cc#\JJJ	.	.	.	.	.
.	8.dd\L	.	.	.	.	.
4a\	.	.	4aa\	.	.	.
.	32cc#\LL	.	.	.	.	.
.	32dd\JJJ	.	.	.	.	.
.	8.ee\L	.	.	.	.	.
8a\	.	.	8aa\	.	.	.
.	32dd\LL	.	.	.	.	.
.	32ee\JJJ	.	.	.	.	.
=7	=7	=7	=7	=7	=7	=7
4a\	8r	.	8aa\L	.	.	.
.	8ff#\L	.	8aa\	.	.	.
4r	8dd\	.	8ff#\	.	.	.
.	8cc#\	.	8ee\	.	.	.
4r	8b\	.	8dd\	.	.	.
.	8a\J	.	8cc#\J	.	.	.
=8	=8	=8	=8	=8	=8	=8
.	4qqa/	.	.	.	.	.
4e\	2g#/	.	2b\	.	.	.
8r	.	.	.	.	.	.
8g#\L	.	.	.	.	.	.
8.a\	[<4ee\	.	4ee\	.	.	.
16b\Jk	.	.	.	.	.	.
=9	=9	=9	=9	=9	=9	=9
8.b\L	2.ee\_	.	[2.ee\	.	0.r	.
16a\K	.	.	.	.	.	.
8.cc#\	.	.	.	.	.	.
16g#\K	.	.	.	.	.	.
8.a\	.	.	.	.	.	.
16b\Jk	.	.	.	.	.	.
=10	=10	=10	=10	=10	=10	=10
4cc#\	8ee\L]	.	8ee\L]	.	.	.
.	8ff#\	.	8aa\	.	.	.
4r	8ee\	.	8gg#\	.	.	.
.	8dd\	.	8ff#\	.	.	.
4g#\	8cc#\	.	8ee\	.	.	.
.	8b\J	.	8dd\J	.	.	.
=11	=11	=11	=11	=11	=11	=11
.	4qqb/	.	.	.	.	.
4e\	2a/	.	2cc#\	.	.	.
8r	.	.	.	.	.	.
8F#/L	.	.	.	.	.	.
8.G#/	4e/	.	4e/	.	.	.
16B/Jk	.	.	.	.	.	.
=12	=12	=12	=12	=12	=12	=12
!	!	!	!	!LO:DY:a:t=p	!	!
8.c#/L	2.e/	.	2.e/	p	.	.
16B/K	.	.	.	.	.	.
8.c#/	.	.	.	.	.	.
16G#/K	.	.	.	.	.	.
8.A/	.	.	.	.	.	.
16B/Jk	.	.	.	.	.	.
!LO:LB:g=original	!	!	!	!	!	!
=13	=13	=13	=13	=13	=13	=13
!LO:TX:t=P:problem=kolejność znaków f# g# c#	!	!	!	!	!	!
4c#/	8e/L	.	8e/L	.	0.r	.
.	8f#/	.	8a/	.	.	.
4r	8e/	.	8a/	.	.	.
.	8d/	.	8f#/	.	.	.
4G#/	8c#/	.	8e/	.	.	.
.	8B/J	.	8d/J	.	.	.
!	!LO:LB:g=original	!	!	!	!	!
=14	=14	=14	=14	=14	=14	=14
!	!	!LO:DY:a	!	!LO:DY:a	!	!
4A/	8A/	f	8c#/	f	.	.
.	4B/	.	4d/	.	.	.
4A/	.	.	.	.	.	.
.	4c#/	.	4e/	.	.	.
4A/	.	.	.	.	.	.
!	!	!	!LO:LB:g=original	!	!	!
.	8c#/	.	8a/	.	.	.
=15	=15	=15	=15	=15	=15	=15
4d\	8e/L	.	8a\L	.	.	.
.	8b/J	.	8dd\J	.	.	.
4e\	4a/	.	4cc#\	.	.	.
4e\	4g#/	.	4b\	.	.	.
=16	=16	=16	=16	=16	=16	=16
!	!	!LO:DY:a:t=p	!	!	!	!
4e\	8a\	p	8a/	.	.	.
.	4ee\	.	4ee\	.	.	.
4c#\	.	.	.	.	.	.
.	8ee\	.	8ee\	.	.	.
4e\	32b\LLL	.	32b\LLL	.	.	.
.	32cc#\JJ	.	32cc#\JJ	.	.	.
.	8.dd\J	.	8.dd\J	.	.	.
=17	=17	=17	=17	=17	=17	=17
!	!	!	!	!LO:DY:a	!	!
4e\	8cc#\	.	8cc#\	p	0.r	.
.	4e/	.	4e/	.	.	.
4c#\	.	.	.	.	.	.
.	8e/	.	8e/	.	.	.
4B\	32B/LLL	.	32B/LLL	.	.	.
.	32c#/JJ	.	32c#/JJ	.	.	.
.	8.d/J	.	8.d/J	.	.	.
=18	=18	=18	=18	=18	=18	=18
!	!LO:TX:t=P:problem=mixed beam	!LO:DY:a:rj	!LO:TX:t=P:problem=mixed beam	!LO:DY:a:rj	!	!
4c#\	8c#/L	f	8c#/L	f	.	.
.	8ff#\	.	8aa\	.	.	.
4d\	8ee\	.	8gg#\	.	.	.
.	8dd\J	.	8ff#\J	.	.	.
4e\	4cc#\	.	4ee\	.	.	.
=19	=19	=19	=19	=19	=19	=19
4f#\	32b\LLL	.	32b\LLL	.	.	.
.	32cc#\JJ	.	32cc#\JJ	.	.	.
.	8.dd\J	.	8.dd\J	.	.	.
4c#\	4a/	.	4a/	.	.	.
4B\	4g#/	.	4g#/	.	.	.
=20	=20	=20	=20	=20	=20	=20
!	!	!LO:DY:a	!	!	!	!
4c#\	8r	p	8r	.	.	.
.	8ff#\L	.	8aa\L	.	.	.
4d\	8ee\	.	8gg#\	.	.	.
.	8dd\J	.	8ff#\J	.	.	.
4e\	4cc#\	.	4ee\	.	.	.
=21	=21	=21	=21	=21	=21	=21
!	!	!LO:DY:a	!	!	!	!
4f#\	32b\LLL	f	32b\LLL	.	0.r	.
.	32cc#\JJ	.	32cc#\JJ	.	.	.
.	8.dd\J	.	8.dd\J	.	.	.
4e\	4a/	.	4cc#\	.	.	.
4e\	4g#/	.	4b\	.	.	.
=22	=22	=22	=22	=22	=22	=22
2e\	2a/	.	2a/	.	.	.
4r	4r	.	4r	.	.	.
=23	=23	=23	=23	=23	=23	=23
!	!	!	!	!LO:DY:a	!	!
4a\	4a/	.	8cc#\L	p	.	.
.	.	.	8ff#\J	.	.	.
4g#\	4b/	.	4.ee\	.	.	.
4e\	4g#/	.	.	.	.	.
.	.	.	8dd\	.	.	.
=24	=24	=24	=24	=24	=24	=24
4e\	4a/	.	2cc#\	.	.	.
4e\	4a/	.	.	.	.	.
4r	4r	.	4e/	.	.	.
=25	=25	=25	=25	=25	=25	=25
!LO:TX:t=P:problem=brak taktów nr 26-27	!	!	!	!	!	!
2.ryy	4e/	.	8a\L	.	0.r	.
.	.	.	8cc#\J	.	.	.
.	4e/	.	4.b\	.	.	.
.	4g#/	.	.	.	.	.
.	.	.	8dd\	.	.	.
=26	=26	=26	=26	=26	=26	=26
2.ryy	8a/L	.	8cc#\L	.	.	.
.	8b/J	.	8dd\J	.	.	.
.	4cc#\	.	4ee\	.	.	.
.	4r	.	4e/	.	.	.
=27	=27	=27	=27	=27	=27	=27
4a\	4e/	.	8a\L	.	.	.
.	.	.	8cc#\J	.	.	.
4g#\	4e/	.	4.b\	.	.	.
4e\	8g#/L	.	.	.	.	.
.	8b/J	.	8dd\	.	.	.
!	!LO:LB:g=original	!	!LO:LB:g=original	!	!	!
=28	=28	=28	=28	=28	=28	=28
!	!LO:TX:t=P:problem=kolejność znaków cc# ff# gg#	!	!LO:TX:t=P:problem=kolejność znaków ff# gg# cc#	!	!	!
4A/	4a\	.	8cc#\	.	.	.
.	.	.	4ee\	.	.	.
4a\	4cc#\	.	.	.	.	.
.	.	.	8ee\	.	.	.
4g#\	4b\	.	32b\LLL	.	.	.
.	.	.	32cc#\JJ	.	.	.
.	.	.	8.dd\J	.	.	.
=29	=29	=29	=29	=29	=29	=29
.	.	.	4qqdd/	.	.	.
4a\	4.a\	.	4.cc#\	.	1.r	.
4A/	.	.	.	.	.	.
.	8cc#\L	.	8ff#\L	.	.	.
4A/	8b\	.	8dd\	.	.	.
.	8a\J	.	8cc#\J	.	.	.
=30	=30	=30	=30	=30	=30	=30
!	!	!LO:DY:a	!	!	!	!
4e\	4.g#/	f	4.b\	.	.	.
4e\	.	.	.	.	.	.
.	8ee\L	.	8ee\L	.	.	.
4r	8cc#\	.	8cc#\	.	.	.
.	8b\J	.	8a\J	.	.	.
=31	=31	=31	=31	=31	=31	=31
2e\	4ee/ 4b/ 4e/	.	4ee/ 4b/ 4e/	.	2.r	.
.	4r	.	4r	.	.	.
4r	4r	.	4r	.	.	.
=32	=32	=32	=32	=32	=32	=32
!	!	!LO:DY:a	!	!LO:DY:a	!	!
4a\	4cc#\	p	8aa\L	p	8a\	Ma-
.	.	.	8ff#\J	.	8f#\	-ter
4g#\	4b\	.	4.ee\	.	4.e\	pi-
4e\	4b\	.	.	.	.	.
.	.	.	8dd\	.	8dd\	-e-
=33	=33	=33	=33	=33	=33	=33
4a\	8a\L	.	8cc#\L	.	8cc#\L	-ta-
.	8b\J	.	8b\J	.	8b\J	.
4A/	4cc#\	.	4a/	.	4a\	-tis
4r	4r	.	4r	.	4r	.
!LO:LB:g=original	!	!	!	!	!	!
=34	=34	=34	=34	=34	=34	=34
!LO:TX:t=P:problem=kolejność znaków c# f# g#	!	!	!	!	!	!
4a\	4cc#\	.	8aa\L	.	8a\	e-
.	.	.	8ff#\J	.	8f#\	-ſto
4g#\	4b\	.	4.ee\	.	4.e\	Cha-
4e\	4b\	.	.	.	.	.
.	.	.	8dd\	.	8dd\	-ri-
=35	=35	=35	=35	=35	=35	=35
4a\	8a\L	.	8cc#\L	.	8cc#\L	-ta-
.	8b\J	.	8b\J	.	8b\J	.
4A/	4cc#\	.	4a/	.	4a\	-tis
4A/	[<4cc#\	.	4ee\	.	4cc#\	fun-
=36	=36	=36	=36	=36	=36	=36
4d\	8cc#\L]	.	8ee\L	.	8cc#\	-da-
.	8b\	.	8dd\	.	8b\	-tix
4d\	8dd\	.	8ff#\	.	8dd\L	pos-
.	8cc#\	.	8ee\	.	8cc#\J	.
4d\	8b\	.	8dd\	.	8b\L	-ci-
.	[<8a\J	.	8cc#\J	.	8a\J	.
=37	=37	=37	=37	=37	=37	=37
4e\	4a/]	.	4cc#\	.	(4a\	-mus
4e\	4g#/	.	4b\	.	4g#\)	.
4r	4r	.	4r	.	4r	.
=38	=38	=38	=38	=38	=38	=38
8r	8r	.	8ee\	.	4r	.
8g#\L	8b/L	.	4bb\	.	.	.
8f#\	8a/	.	.	.	8r	.
8e\	8g#/	.	8bb\	.	8g#\	ach
8d#X\	8f#/	.	32ff#\LLL	.	8f#\L	Ma-
.	.	.	32gg#\JJ	.	.	.
.	.	.	8.aa\J	.	.	.
8B\J	8d#X/J	.	.	.	8a\J	-ter
=39	=39	=39	=39	=39	=39	=39
8r	8r	.	8ee\	.	4g#\	au-
8g#\L	8b/L	.	4b/	.	.	.
8f#\	8a/	.	.	.	4e\	-di
8e\	8g#/	.	8b/	.	.	.
!LO:SIC:s:v=8d#	!	!	!	!	!	!
8d\	8f#/	.	32f#/LLL	.	4r	.
.	.	.	32g#/JJ	.	.	.
.	.	.	8.a/J	.	.	.
!	!LO:SIC:s:v=8d#	!	!	!	!	!
8B\J	8d/J	.	.	.	.	.
=40	=40	=40	=40	=40	=40	=40
*	*	*	*	*	*custos:e	*
!	!	!	!	!	!LO:TX:a:t=1	!
8r	8r	.	8r	.	2.r	.
8e\L	8e/L	.	8g#/L	.	.	.
8f#\	8f#/	.	8a/	.	.	.
8g#\	8g#/	.	8b/	.	.	.
8a\	8a/	.	8cc#/	.	.	.
8b\J	8b/J	.	8dd/J	.	.	.
!	!	!	!LO:LB:g=original	!	!LO:LB:g=original	!
=41	=41	=41	=41	=41	=41	=41
!	!	!	!	!	!LO:TX:t=P:problem=kolejność znaków c# f# g#	!
8r	8r	.	8ee\	.	4e\	ach
8cc#\L	8ee\L	.	4ee\	.	.	.
8b\	8dd\	.	.	.	4e\	au-
8a\	8cc#\	.	8ee\	.	.	.
8g#\	8b\	.	32b\LLL	.	4e\	-di
.	.	.	32cc#\JJ	.	.	.
.	.	.	8.dd\J	.	.	.
!LO:SIC:s:v=8en	!	!	!	!	!	!
8f#\J	8g#\J	.	.	.	.	.
!	!LO:LB:g=original	!	!	!	!	!
=42	=42	=42	=42	=42	=42	=42
*	*	*	*	*	*2\right	*
!	!LO:TX:t=P:problem=kolejność znaków ff# gg# cc#	!	!	!	!	!
8r	8r	.	8cc#\	.	2e\	Ma-
8c#/L	8e/L	.	4e/	.	.	.
8B/	8d/	.	.	.	.	.
8A/	8c#/	.	8e/	.	.	.
8G#/	8B/	.	32B/LLL	.	4e\	-ter
.	.	.	32c#/JJ	.	.	.
.	.	.	8.d/J	.	.	.
8E/J	8G#X/J	.	.	.	.	.
=43	=43	=43	=43	=43	=43	=43
8r	8A/L	.	8c#/L	.	4e\	au-
8c#\L	8e/	.	8e/	.	.	.
8d\	8f#/	.	8f#/	.	4e\	-di
8e\	8g#/	.	8g#/	.	.	.
8f#\	8a/	.	8a/	.	4r	.
8g#\J	8b/J	.	8b/J	.	.	.
=44	=44	=44	=44	=44	=44	=44
4a\	8cc#\	.	8cc#\	.	8r	.
.	4cc#\	.	4aa\	.	8cc#\	ach
4f#\	.	.	.	.	8cc#\L	Ma-
.	8b\L	.	8gg#\L	.	8b\J	.
4a\	8a\	.	8ff#\	.	8a\L	-ter
.	8g#\J	.	8ee\J	.	8g#\J	.
=45	=45	=45	=45	=45	=45	=45
4b\	4g#/	.	4ee\	.	4g#\	au-
8r	4f#/	.	4dd#X\	.	4f#\	-di
8b\L	.	.	.	.	.	.
8f#\	4r	.	4r	.	4r	.
8d#X\J	.	.	.	.	.	.
=46	=46	=46	=46	=46	=46	=46
!LO:TX:t=P:problem=kolejność znaków f# c# g#	!	!	!	!	!	!
4B/	4b\	.	2.r	.	4b\	in
4B/	4b\	.	.	.	4b\	ten-
4B/	4b\	.	.	.	4b\	-tos
=47	=47	=47	=47	=47	=47	=47
4B/	2.b\	.	4cc#\	.	2.b\	tu-
4B/	.	.	4cc#\	.	.	.
4B/	.	.	4cc#\	.	.	.
=48	=48	=48	=48	=48	=48	=48
4B/	4a\	.	4cc#\	.	2.a\	.
4B/	4a\	.	4cc#\	.	.	.
4B/	4a\	.	4cc#\	.	.	.
!LO:LB:g=original	!	!	!	!	!	!
=49	=49	=49	=49	=49	=49	=49
4B/	4a\	.	4dd#X\	.	2.a\	-a
4B/	4a\	.	4dd#\	.	.	.
4B/	4a\	.	4dd#\	.	.	.
=50	=50	=50	=50	=50	=50	=50
4e\	4g#\	.	4ee\	.	4g#\	in
4e\	4a\	.	4cc#\	.	4a\	ten-
4e\	4g#\	.	4b\	.	4g#\	-tos
=51	=51	=51	=51	=51	=51	=51
2.r	2.r	.	2.r	.	8g#\	tu-
.	.	.	.	.	8f#\	-a
.	.	.	.	.	(4e\	Lau-
.	.	.	.	.	4d#X\)	.
=52	=52	=52	=52	=52	=52	=52
4r	8bb\L	.	8bb\L	.	2e\	-di
.	8aa\	.	8aa\	.	.	.
4g#\	8gg#\	.	8gg#\	.	.	.
.	8ff#\	.	8ff#\	.	.	.
4b\	8ee\	.	8ee\	.	4r	.
.	8dd\J	.	8dd\J	.	.	.
=53	=53	=53	=53	=53	=53	=53
4r	2cc#/ 2e/ 2A/	.	2cc#/ 2e/ 2A/	.	4r	.
4c#\	.	.	.	.	4a\	in
4e\	4r	.	4r	.	4r	.
=54	=54	=54	=54	=54	=54	=54
4r	2ee/ 2b/ 2e/	.	2ee/ 2b/ 2e/	.	4r	.
4g#\	.	.	.	.	4g#\	planc-
4b\	4r	.	4r	.	4r	.
=55	=55	=55	=55	=55	=55	=55
*	*^	*	*	*	*	*
4r	2a/ 2f#/	2B\	.	2a/ 2f#/ 2B/	.	4r	.
4d#X\	.	.	.	.	.	4f#\	-tu
4f#\	4r	4ryy	.	4r	.	4r	.
*	*v	*v	*	*	*	*	*
!	!	!	!	!	!LO:LB:g=original	!
=56	=56	=56	=56	=56	=56	=56
4e\	4e/	.	4g#/	.	4r	.
4e\	4a/	.	4cc#/	.	4a\	in
4e\	4g#/	.	4b/	.	4g#\	plan-
!	!	!	!LO:LB:g=original	!	!	!
=57	=57	=57	=57	=57	=57	=57
!	!	!	!LO:TX:t=P:problem=kolejność znaków ff# cc# gg#	!	!	!
!	!	!	!LO:TX:a:t=1	!	!	!
2.r	2.r	.	2.r	.	8g#\L	-ctu
.	.	.	.	.	8f#\J	.
.	.	.	.	.	4e\	vi-
.	.	.	.	.	4d#X\	-vi-
=58	=58	=58	=58	=58	=58	=58
!	!	!LO:DY:a:t=for	!	!	!	!
2e\	8r	f	8r	.	2e\	-mus
.	8cc#/L	.	8ee\L	.	.	.
.	8b/	.	8dd#X\	.	.	.
.	8a/	.	8cc#\	.	.	.
4r	8g#/	.	8b\	.	4r	.
.	8f#/J	.	8a\J	.	.	.
!	!LO:LB:g=original	!	!	!	!	!
=59	=59	=59	=59	=59	=59	=59
!	!LO:TX:t=P:problem=kolejność znaków ff# cc# gg#	!	!	!	!	!
4r	2e/	.	2g#\	.	0.r	.
8r	.	.	.	.	.	.
8d#X\L	.	.	.	.	.	.
8.e\	4b\	.	4b\	.	.	.
16f#\Jk	.	.	.	.	.	.
=60	=60	=60	=60	=60	=60	=60
8.g#\L	2.b\	.	2.b\	.	.	.
16f#\K	.	.	.	.	.	.
8.g#\	.	.	.	.	.	.
!LO:SIC:s:v=8.d#	!	!	!	!	!	!
16d\K	.	.	.	.	.	.
8.e\	.	.	.	.	.	.
16f#\Jk	.	.	.	.	.	.
=61	=61	=61	=61	=61	=61	=61
4g#\	8b\L	.	8b\L	.	.	.
.	8cc#\	.	8ee\	.	.	.
4r	8b\	.	8dd#X\	.	.	.
.	8a\	.	8cc#\	.	.	.
4r	8g#\	.	8b\	.	.	.
.	8f#\J	.	8a\J	.	.	.
=62	=62	=62	=62	=62	=62	=62
4e\	2e/	.	2g#/	.	.	.
8r	.	.	.	.	.	.
8d#X\L	.	.	.	.	.	.
8.e\	4B/	.	4B/	.	.	.
16f#\Jk	.	.	.	.	.	.
=63	=63	=63	=63	=63	=63	=63
8.g#\L	2.B/	.	2.B/	.	0.r	.
16f#\K	.	.	.	.	.	.
8.g#\	.	.	.	.	.	.
!LO:SIC:s:v=8.d#	!	!	!	!	!	!
16d\K	.	.	.	.	.	.
8.e\	.	.	.	.	.	.
16f#\Jk	.	.	.	.	.	.
=64	=64	=64	=64	=64	=64	=64
4g#\	8e/	.	8g#/	.	.	.
.	4f#/	.	4a/	.	.	.
4e\	.	.	.	.	.	.
.	4g#/	.	4b/	.	.	.
4e\	.	.	.	.	.	.
.	8a/	.	8ee\	.	.	.
!LO:LB:g=original	!	!	!	!	!	!
=65	=65	=65	=65	=65	=65	=65
4A/	8r	.	32ff#\LLL	.	.	.
.	.	.	32gg#\JJ	.	.	.
.	.	.	8.aa\J	.	.	.
.	8cc#\	.	.	.	.	.
4B/	4g#/	.	4ee\	.	.	.
4B/	4f#/	.	4dd#X\	.	.	.
=66	=66	=66	=66	=66	=66	=66
4g#\	8r	.	8r	.	.	.
.	8cc#\L	.	8ee\L	.	.	.
4a\	8b\	.	8dd#X\	.	.	.
.	8a\	.	8cc#\J	.	.	.
4b\	8g#\	.	4b\	.	.	.
.	8e\J	.	.	.	.	.
=67	=67	=67	=67	=67	=67	=67
4a\	8a/L	.	32a/LLL	.	0.r	.
.	.	.	32b/JJ	.	.	.
.	.	.	8.cc#/J	.	.	.
.	8f#/J	.	.	.	.	.
4b\	4g#/	.	4g#/	.	.	.
4a\	4f#/	.	4f#/	.	.	.
=68	=68	=68	=68	=68	=68	=68
2b\	2e/	.	2e/	.	.	.
4r	4r	.	4r	.	.	.
=69	=69	=69	=69	=69	=69	=69
!	!	!LO:DY:a:rj	!	!LO:DY:a	!	!
4e\	4g#/	p	(8ee\L	p	.	.
.	.	.	8cc#\J)	.	.	.
!	!	!	!LO:TX:a:t=|	!	!	!
4d#X\	4f#/	.	4.b\	.	.	.
4B\	4d#X/	.	.	.	.	.
.	.	.	8a\	.	.	.
=70	=70	=70	=70	=70	=70	=70
4e\	8e/L	.	8g#\L	.	.	.
.	8f#/J	.	8a\J	.	.	.
4e\	4g#/	.	4b\	.	.	.
4r	4r	.	4r	.	.	.
=71	=71	=71	=71	=71	=71	=71
4e\	8g#/L	.	8ee\L	.	2.r	.
.	8e/J	.	8cc#\J	.	.	.
4B\	4e/	.	4.b\	.	.	.
4B\	4d#X/	.	.	.	.	.
.	.	.	8a\	.	.	.
!	!	!	!LO:LB:g=original	!	!	!
=72	=72	=72	=72	=72	=72	=72
!	!	!	!LO:TX:t=P:problem=kolejność znaków cc# ff# gg#	!	!	!
4e\	8e/L	.	8g#\L	.	4r	.
.	8f#/J	.	8a\J	.	.	.
4e\	4g#/	.	4b\	.	4r	.
4e\	4cc#\	.	4ee\	.	4cc#\	fun-
=73	=73	=73	=73	=73	=73	=73
4e\	4b\	.	4dd\	.	4.b\	-da-
4e\	4b\	.	4dd\	.	.	.
.	.	.	.	.	8dd\	-trix
4e\	4b\	.	4dd\	.	8cc#\L	.
.	.	.	.	.	8b\J	.
=74	=74	=74	=74	=74	=74	=74
4e\	4a\	.	4cc#\	.	4.a\	pos-
4e\	4a\	.	4cc#\	.	.	.
.	.	.	.	.	8cc#\	-ci-
4e\	4a\	.	4cc#\	.	8b\L	.
.	.	.	.	.	8a\J	.
=75	=75	=75	=75	=75	=75	=75
4e\	4a/	.	4cc#\	.	4a\	.
4e\	4g#/	.	8b\L	.	4g#\	-mus
.	.	.	8ee\	.	.	.
4r	4r	.	8cc#\	.	4r	.
.	.	.	8a\J	.	.	.
=76	=76	=76	=76	=76	=76	=76
4e\	4ee/ 4b/ 4e/	.	4ee/ 4b/ 4e/	.	2.r	.
8r	4r	.	4r	.	.	.
8e\L	.	.	.	.	.	.
8.c#\	4r	.	4r	.	.	.
16A\Jk	.	.	.	.	.	.
!	!LO:LB:g=original	!	!	!	!	!
=77	=77	=77	=77	=77	=77	=77
!	!LO:TX:t=P:problem=kolejność znaków cc# ff# gg#	!	!	!	!	!
4e\	4r	.	4ee\	.	8cc#\	Ma-
.	.	.	.	.	8cc#\	-ter
8r	8r	.	4ee\	.	4r	.
8e\L	8g#\L	.	.	.	.	.
8.f#\	8.a\	.	4ee\	.	4r	.
16g#\Jk	16b\Jk	.	.	.	.	.
=78	=78	=78	=78	=78	=78	=78
8.a\L	8.cc#\L	.	[2.ee\	.	8cc#\	au-
.	.	.	.	.	8cc#\	-di
16g#\K	16b\K	.	.	.	.	.
8.a\	8.cc#\	.	.	.	8r	.
.	.	.	.	.	8g#\	in
16A\K	16g#\K	.	.	.	.	.
8.f#\	8.a\	.	.	.	8a\L	ten-
.	.	.	.	.	8b\J	.
16g#\Jk	16b\Jk	.	.	.	.	.
=79	=79	=79	=79	=79	=79	=79
4a\	4cc#\	.	4ee\]	.	4cc#\	-tos
4a\	4b\	.	4dd\	.	4b\	tu-
4a\	4a\	.	4cc#\	.	4a\	-a
=80	=80	=80	=80	=80	=80	=80
4d\	8a/L	.	8cc#\L	.	4a\	Lau-
.	8f#/J	.	8b\J	.	.	.
4e\	4.g#/	.	4cc#\	.	4a\	.
4e\	.	.	4b\	.	4g#\	.
.	8a/	.	.	.	.	.
!LO:LB:g=original	!	!	!	!	!	!
=81	=81	=81	=81	=81	=81	=81
4cn/	8r	.	8r	.	2a\	-di
.	4fn/	.	4fn/	.	.	.
4B/	.	.	.	.	.	.
.	4e/	.	4e/	.	.	.
4A/	.	.	.	.	4r	.
.	8d#X/	.	8d#X/	.	.	.
!	!	!	!	!	!LO:LB:g=original	!
=82	=82	=82	=82	=82	=82	=82
2B/	2e/	.	2e/	.	1.r	.
4r	4r	.	4ee\	.	.	.
=83	=83	=83	=83	=83	=83	=83
4e\	4r	.	4ee\	.	.	.
4e\	4r	.	4ccn\	.	.	.
4e\	4cn/	.	4a\	.	.	.
=84	=84	=84	=84	=84	=84	=84
!	!LO:SIC:s:v=4cn	!	!	!	!	!
4e\	4c#/	.	4a/	.	4r	.
4e\	4B/	.	4g#/	.	4r	.
4e\	4r	.	4r	.	4e\	o-
=85	=85	=85	=85	=85	=85	=85
4e\	4r	.	4e/	.	4e\	-mni-
4cn\	4r	.	4a/	.	4a\	-bus
4A/	4a/	.	4ccn\	.	4ccn\	pla-
=86	=86	=86	=86	=86	=86	=86
!	!	!	!LO:SIC:s:v=4ccn	!	!LO:SIC:s:v=4ccn	!
4e\	4a/	.	4cc#\	.	4cc#\	-ca-
4e\	4g#/	.	4b\	.	4b\	-bi-
4e\	4ccn\	.	[<4ee\	.	4ccn\	-lis
=87	=87	=87	=87	=87	=87	=87
!	!LO:SIC:s:v=4ccn	!	!	!	!LO:SIC:s:v=4ccn	!
4e\	4cc#\	.	4ee\]	.	4cc#\	o-
4e\	4b\	.	4dd\	.	4b\	.
4e\	4a\	.	4ccn\	.	4a\	-mni-
=88	=88	=88	=88	=88	=88	=88
!	!	!	!LO:SIC:s:v=4ccn	!	!	!
4e\	4a\	.	4cc#\	.	(4a\	-bus
4e\	4g#\	.	4b\	.	4g#\)	.
4r	4r	.	4r	.	4r	.
!	!	!	!LO:LB:g=original	!	!	!
=89!|:	=89	=89	=89	=89	=89	=89
!	!	!	!LO:TX:t=P:problem=kolejność znaków ff# cc# gg#	!	!	!
8r	8r	.	8r	.	8a\	Ma-
8c#/L	8e/L	.	4ee\	.	8a\	-ter
8B/	8d/	.	.	.	8r	.
8A/	8c#/	.	8ee\	.	8cc#X\	pie-
8G#/	8B/	.	32b\LLL	.	8b\L	.
.	.	.	32cc#\JJ	.	.	.
.	.	.	8.dd\J	.	.	.
8E/J	8G#/J	.	.	.	8dd\J	.
=90:|!	=90	=90	=90	=90	=90	=90
!LO:TX:t=P:problem=takt 91 zapisany repetycją	!	!	!	!	!	!
8ryy	8r	.	8cc#\	.	4cc#\	-ta-
8c#/Lyy	8e/L	.	4ee\	.	.	.
8B/yy	8d/	.	.	.	4b\	-tis
8A/yy	8c#/	.	8ee\	.	.	.
8G#/yy	8B/	.	32b\LLL	.	4r	.
.	.	.	32cc#\JJ	.	.	.
.	.	.	8.dd\J	.	.	.
8E/Jyy	8G#/J	.	.	.	.	.
=91	=91	=91	=91	=91	=91	=91
8r	2.r	.	8r	.	8a\	Ma-
8A\L	.	.	8cc#\L	.	8a\	-ter
8B\	.	.	8dd\	.	4r	.
8c#\	.	.	8ee\	.	.	.
8d\	.	.	8ff#\	.	4r	.
8e\J	.	.	8ggn\J	.	.	.
=92!|:	=92	=92	=92	=92	=92	=92
8r	8r	.	8aa\	.	4a\	o
8f#\L	8a/L	.	4aa\	.	.	.
8e\	8gn/	.	.	.	4a\	Ma-
8d\	8f#/	.	8aa\	.	.	.
8c#\	8e/	.	32ee\LLL	.	4a\	-ter
.	.	.	32ff#\JJ	.	.	.
.	.	.	8.ggn\J	.	.	.
8A\J	8c#/J	.	.	.	.	.
!	!LO:LB:g=original	!	!	!	!	!
=93:|!	=93	=93	=93	=93	=93	=93
!	!LO:TX:t=P:problem=kolejność znaków ff# gg# cc#	!	!	!	!	!
8ryy	8r	.	8ff#\	.	2.a\	Ma-
8f#\Lyy	8a/L	.	4aa\	.	.	.
8e\yy	8gn/	.	.	.	.	.
8d\yy	8f#/	.	8aa\	.	.	.
8c#\yy	8e/	.	32ee\LLL	.	.	.
.	.	.	32ff#\JJ	.	.	.
.	.	.	8.ggn\J	.	.	.
8A\Jyy	8c#/J	.	.	.	.	.
=94	=94	=94	=94	=94	=94	=94
8d\L	4d/	.	4ff#\	.	4a\	-ter
8b\	.	.	.	.	.	.
8a\	8r	.	8r	.	4r	.
8gn\	8a\L	.	8cc#\L	.	.	.
8f#\	8b\	.	8dd\	.	4r	.
8e\J	8cc#\J	.	8ee\J	.	.	.
=95	=95	=95	=95	=95	=95	=95
2d\	2dd/ 2f#/ 2A/	.	2ff#/ 2a/ 2d/	.	2.dd\	te
*custos:c#	*	*	*	*	*	*
4r	4r	.	4r	.	.	.
!LO:LB:g=original	!	!	!	!	!	!
=96	=96	=96	=96	=96	=96	=96
2c#\	2cc#/ 2e/ 2A/	.	2ff#/ 2cc#/ 2a/	.	2.cc#\	ſup-
4r	4r	.	4r	.	.	.
=97	=97	=97	=97	=97	=97	=97
2B\	2b/	.	2dd\	.	2b\	-li-
4A\	4a/	.	4cc#\	.	4b\	-ces
=98	=98	=98	=98	=98	=98	=98
4A\	4ff#/ 4a/ 4d/	.	4ff#/ 4a/ 4d/	.	(8a\	Co-
.	.	.	.	.	8b\)	.
4r	4r	.	4r	.	4a\	.
4r	4r	.	4r	.	4g#\	-li-
!	!	!	!	!	!LO:LB:g=original	!
=99	=99	=99	=99	=99	=99	=99
2A\	8a\	.	8a/	.	2a\	-mus
.	4ff#\	.	4aa\	.	.	.
.	8ee\L	.	8gg#\L	.	.	.
4r	8dd\	.	8ff#\	.	4r	.
.	8cc#\J	.	8ee\J	.	.	.
=100	=100	=100	=100	=100	=100	=100
4b\	2b\	.	2dd\	.	2b\	te
4e\	.	.	.	.	.	.
4f#\	4a\	.	4cc#\	.	4a\	sup-
!	!	!	!LO:LB:g=original	!	!	!
=101	=101	=101	=101	=101	=101	=101
!	!	!	!LO:TX:t=P:problem=kolejność znaków ff# gg# cc#	!	!	!
2.r	2.r	.	2.r	.	8a\	-li-
.	.	.	.	.	8a\	-ces
.	.	.	.	.	4a\	Co-
.	.	.	.	.	4g#\	-li-
=102	=102	=102	=102	=102	=102	=102
!	!	!LO:DY:a:t=for	!	!LO:DY:a:t=for	!	!
4A\	8.cc#\L	f	8r	f	2.a\	-mus
.	.	.	4aa\	.	.	.
.	32b\LL	.	.	.	.	.
.	32cc#\JJJ	.	.	.	.	.
4B\	8.dd\L	.	.	.	.	.
.	.	.	4aa\	.	.	.
.	32cc#\LL	.	.	.	.	.
.	32dd\JJJ	.	.	.	.	.
4c#\	8.ee\L	.	.	.	.	.
.	.	.	8aa\	.	.	.
.	32dd\LL	.	.	.	.	.
.	32ee\JJJ	.	.	.	.	.
=103	=103	=103	=103	=103	=103	=103
4d\	8ee\L	.	8aa\L	.	0.r	.
.	8ff#\	.	8aa\	.	.	.
4d\	8dd\	.	8ff#\	.	.	.
.	8cc#\	.	8ee\	.	.	.
4d\	8b\	.	8dd\	.	.	.
.	8a\J	.	8cc#\J	.	.	.
=104	=104	=104	=104	=104	=104	=104
4e\	8g#/L	.	2b\	.	.	.
.	8f#/J	.	.	.	.	.
8r	8.e/L	.	.	.	.	.
8e\L	.	.	.	.	.	.
.	16g#/K	.	.	.	.	.
8.f#\	8.a/	.	4ee\	.	.	.
16g#\Jk	16b/Jk	.	.	.	.	.
=105	=105	=105	=105	=105	=105	=105
8.a\L	8.cc#\L	.	2.ee\	.	.	.
16g#\K	16b\K	.	.	.	.	.
8.a\	8.cc#\	.	.	.	.	.
16e\K	16g#\K	.	.	.	.	.
!	!LO:N:vis=8	!	!	!	!	!
8.f#\	8.a\	.	.	.	.	.
16g#\Jk	16b\Jk	.	.	.	.	.
=106	=106	=106	=106	=106	=106	=106
4a\	8a\	.	8cc#\	.	.	.
.	4b\	.	4dd\	.	.	.
4a\	.	.	.	.	.	.
.	4cc#\	.	4ee\	.	.	.
4a\	.	.	.	.	.	.
.	8ee\	.	8aa\	.	.	.
!	!LO:LB:g=original	!	!	!	!	!
=107	=107	=107	=107	=107	=107	=107
4d\	32dd\LLL	.	32ff#\LLL	.	0.r	.
.	32cc#\JJ	.	32ee\JJ	.	.	.
.	8.b\J	.	8.dd\J	.	.	.
4e\	4a/	.	4cc#\	.	.	.
4e\	4g#/	.	4b\	.	.	.
=108	=108	=108	=108	=108	=108	=108
!LO:TX:t=P:problem=brak pauzy ósemkowej na 1 miarę	!	!LO:DY:a:t=p	!	!LO:DY:a	!	!
8ryy	8a/L	p	8a/	p	.	.
8c#/L	8e/	.	4ee\	.	.	.
8B/	8d/	.	.	.	.	.
8A/	8c#/	.	8ee\	.	.	.
8G#/	8B/	.	32b\LLL	.	.	.
.	.	.	32cc#\JJ	.	.	.
.	.	.	8.dd\J	.	.	.
8E/J	8G#/J	.	.	.	.	.
=109	=109	=109	=109	=109	=109	=109
!LO:TX:t=P:problem=takt 110 zapisany repetycją	!	!	!	!	!	!
!LO:TX:t=P:problem=brak pauzy ósemkowej na 1 miarę	!	!	!	!	!	!
8ryy	8r	.	8cc#\	.	.	.
8c#/Lyy	8e/L	.	4e/	.	.	.
8B/yy	8d/	.	.	.	.	.
8A/yy	8c#/	.	8e/	.	.	.
8G#/yy	8B/	.	32B/LLL	.	.	.
.	.	.	32c#/JJ	.	.	.
.	.	.	8.d/J	.	.	.
8E/Jyy	8G#/J	.	.	.	.	.
=110	=110	=110	=110	=110	=110	=110
!	!	!LO:DY:a:t=for	!	!	!	!
4a\	8a\	f	8cc#\	.	.	.
.	4b\	.	4dd\	.	.	.
4a\	.	.	.	.	.	.
.	4cc#\	.	4ee\	.	.	.
4a\	.	.	.	.	.	.
.	8ee\	.	8aa\	.	.	.
=111	=111	=111	=111	=111	=111	=111
4d\	32dd\LLL	.	32b\LLL	.	1.r	.
.	32cc#\JJ	.	32cc#\JJ	.	.	.
.	8.b\J	.	8.dd\J	.	.	.
4e\	4a/	.	4cc#\	.	.	.
4e\	4g#/	.	4b\	.	.	.
=112	=112	=112	=112	=112	=112	=112
!	!	!	!	!	!LO:TX:a:t=Finis	!
2A;;/	2a/	.	2a/	.	.	.
!	!	!	!LO:TX:b:t=V C	!	!	!
!LO:TX:b:t=finis	!LO:TX:a:t=finis	!	!LO:TX:a:t=Finis	!	!	!
4r	4r	.	4r	.	.	.
!LO:LB:g=original	!	!	!LO:PB:g=original	!	!	!
=113||	=113||;;	=113||	=113||	=113||	=113||;;	=113||
!LO:TX:t=P:problem=kolejność znaków c# f# g#	!	!	!LO:TX:t=P:problem=kolejność znaków cc# ff# gg#	!	!	!
4f#\	4a\	.	4cc#\	.	4cc#\	bo-
4f#\	4cc#\	.	4ff#\	.	4a\	-no-
4f#\	4a\	.	4ff#\	.	4f#\	-rum
=114	=114	=114	=114	=114	=114	=114
4c#\	4a\	.	4ff#\	.	(4f#\	di-
4c#\	4g#\	.	4ee#X\	.	4e#X\)	.
4r	[<4dd\	.	4r	.	4dd\	-spen-
=115	=115	=115	=115	=115	=115	=115
4e#X\	4dd\]	.	4gg#X\	.	4dd\	-sa-
4e#\	8cc#\L	.	4gg#\	.	8cc#\L	.
.	8b\	.	.	.	8b\J	.
4e#\	8a\	.	4gg#\	.	8a\L	.
.	8g#\J	.	.	.	8g#\J	.
=116	=116	=116	=116	=116	=116	=116
4f#\	2a\	.	4cc#\	.	4a\	-trix
4f#\	.	.	4ff#\	.	4f#\	.
4f#\	4cc#\	.	4aa\	.	4a\	sis
=117	=117	=117	=117	=117	=117	=117
4B\	4dd\	.	8aa\L	.	8a\	no-
.	.	.	8gg#\	.	8g#\	-stra
4B\	4dd\	.	8bb\	.	8b\L	Con-
.	.	.	8aa\	.	8a\J	.
!LO:SIC:s:v=4B	!	!	!	!	!	!
4c#\	4dd#X\	.	8gg#\	.	8g#\L	-so-
.	.	.	8ff#\J	.	8f#\J	.
=118	=118	=118	=118	=118	=118	=118
4c#\	4ee#X\	.	8r	.	4f#\	-la-
.	.	.	4gg#\	.	.	.
4c#\	4f#X/	.	.	.	4e#X\	-trix
.	.	.	8gg#\	.	.	.
4B#X\	4g#/	.	32dd\LLL	.	4r	.
.	.	.	32ee\JJ	.	.	.
.	.	.	8.ff#\J	.	.	.
=119	=119	=119	=119	=119	=119	=119
4c#\	4r	.	4ee\	.	0.r	.
4e\	4g#\	.	4ee\	.	.	.
4c#\	4cc#\	.	4ee\	.	.	.
=120	=120	=120	=120	=120	=120	=120
4g#\	4cc#\	.	4ee\	.	.	.
4g#\	4b#X\	.	4dd#X\	.	.	.
4g#\	4r	.	4g#/	.	.	.
=121	=121	=121	=121	=121	=121	=121
4g#\	4r	.	4g#/	.	.	.
4e\	4r	.	4cc#\	.	.	.
4c#\	4cc#\	.	4ee\	.	.	.
=122	=122	=122	=122	=122	=122	=122
4g#\	4cc#\	.	4ee\	.	.	.
4g#\	4b#X\	.	4dd#X\	.	.	.
!	!LO:TX:b:t=V C	!	!	!	!	!
4f#\	4r	.	4r	.	.	.
!	!LO:PB:g=original	!	!	!	!	!
=123	=123	=123	=123	=123	=123	=123
!	!LO:TX:a:t=1	!	!	!	!	!
4e#X\	2.r	.	4gg#\	.	(4g#\	po-
4e#\	.	.	4ccc#\	.	4cc#\)	.
4e#\	.	.	4bb\	.	4b\	.
=124	=124	=124	=124	=124	=124	=124
2.f#\	4cc#\	.	4bb\	.	4b\	-ten-
.	4ff#\	.	4aa#X\	.	4a#X\	-tem
.	4ee\	.	4r	.	4r	.
!	!	!	!	!	!LO:LB:g=original	!
=125	=125	=125	=125	=125	=125	=125
2.B\	4ee\	.	4ff#\	.	(4f#\	o
.	4dd#X\	.	4bb\	.	4b\)	.
.	4r	.	4aa\	.	4an\	quam
=126	=126	=126	=126	=126	=126	=126
2.e\	4b\	.	4aa\	.	4a\	bo-
.	4ee\	.	4gg#\	.	4g#\	-nus
.	4ddn\	.	4r	.	4r	.
!	!	!	!LO:LB:g=original	!	!	!
=127	=127	=127	=127	=127	=127	=127
!	!	!	!LO:TX:t=P:problem=kolejność znaków ff# gg# cc#	!	!	!
*	*	*	*	*	*	*ij
2.A/	4dd\	.	4ee\	.	4e\	bo-
.	[2cc#\	.	4aa\	.	4a\	-nus
*	*	*	*	*	*	*Xij
.	.	.	4aa\	.	4a\	La-
=128	=128	=128	=128	=128	=128	=128
2e\	4cc#\]	.	4aa\	.	(4a\	-ben-
.	2b\	.	2gg#\	.	4g#\)	.
4e#X\	.	.	.	.	4g#\	-tes
=129	=129	=129	=129	=129	=129	=129
2.f#\	4a\	.	4ff#\	.	(4.f#\	te
.	4b\	.	4gg#\	.	.	.
.	.	.	.	.	8g#\)	.
.	4a\	.	4ff#\	.	4f#\	pa-
=130	=130	=130	=130	=130	=130	=130
4c#\	4a\	.	4ff#\	.	4f#\	-tro-
4e#X\	4g#\	.	4ee#X\	.	4e#X\	-nam
4g#\	4r	.	4r	.	4r	.
=131	=131	=131	=131	=131	=131	=131
!	!LO:TX:a:t=1	!	!	!	!	!
4c#\	2.r	.	4ccc#\	.	4cc#\	so-
4c#\	.	.	4ccc#\	.	4cc#\	-la-
4c#\	.	.	4ccc#\	.	4cc#\	-mur
!LO:LB:g=original	!	!	!	!	!	!
=132	=132	=132	=132	=132	=132	=132
4c#\	4dd\	.	4ccc#\	.	4cc#\	te
4c#\	4dd\	.	2bb\	.	4b\	.
!	!LO:TX:a:t=d	!	!	!	!	!
4c#\	4dd\	.	.	.	4b\	pre-
=133	=133	=133	=133	=133	=133	=133
4c#\	4cc#\	.	4bb\	.	4b\	-ca-
4c#\	4ee#X\	.	8aa\L	.	8a\L	.
.	.	.	8gg#\J	.	8g#\J	.
4c#\	4ff#\	.	4aa\	.	4a\	.
=134	=134	=134	=134	=134	=134	=134
4c#\	[2.b\	.	4aa\	.	4a\	.
4c#\	.	.	[2gg#\	.	2g#\	-mur
4c#\	.	.	.	.	.	.
=135	=135	=135	=135	=135	=135	=135
4c#\	4b\]	.	4gg#\]	.	4g#\	te
4c#\	4cc#\	.	8ff#\L	.	(8f#\L	.
.	.	.	8ee#X\J	.	8e#X\J)	.
4c#\	4b\	.	4ff#\	.	4f#\	pre-
=136	=136	=136	=136	=136	=136	=136
4c#\	4a/	.	4ff#\	.	4f#\	-ca-
4c#\	4g#X/	.	4ee#X\	.	4e#X\	-mur
4r	4r	.	4r	.	4r	.
=137	=137	=137	=137	=137	=137	=137
2B/	1.r	.	2dd/ 2f#/ 2A/	.	4b\	Ma-
.	.	.	.	.	4a\	-trem
4r	.	.	4r	.	4g#\	di-
!	!	!	!	!	!LO:LB:g=original	!
=138	=138	=138	=138	=138	=138	=138
2.r	.	.	2.r	.	4f#\	-li-
.	.	.	.	.	2e#X\	-gi-
=139	=139	=139	=139	=139	=139	=139
!	!LO:TX:a:t=Da Capo.	!	!	!	!	!
!	!LO:TX:t=P:problem=brak taktu nr 140	!	!	!	!	!
4r	2.ryy	.	4r	.	2f#\	-mus.
4r	.	.	4r	.	.	.
!LO:TX:a:t=Da capo	!	!	!LO:TX:a:t=Da Capo.	!	!LO:TX:a:t=Da Capo.	!
4ryy	.	.	4ee\	.	4r	.
==	==	==	==	==	==	==
*-	*-	*-	*-	*-	*-	*-
!!!system-decoration: [(s1)][(s2,s3,s4)]
!!!RDF**dynam: p = p:
!!!RDF**dynam: f = f:
!!!RDF**kern: > = above
!!!RDF**kern: < = below
!!!ENC: Andrzej Kubiczek
!!!END: 2020-07-23
!!!ENC: Leszek Kubiak
!!!END: 2022-02-08
!!!YEC: Copyright 2022 Narodowy Instytut Fryderyka Chopina (https://polishscores.org)
!!!YEM: License CC-BY-4.0 (https://creativecommons.org/licenses/by/4.0)
